assets/images/train.svg

<svg xmlns="http://www.w3.org/2000/svg" viewBox="0 0 20 20"><path fill-rule="evenodd" d="M3 3.40321C3 2.71453 3.44106 2.10651 4.11065 1.94544C5.33356 1.65128 7.46614 1.25 10 1.25C12.5339 1.25 14.6664 1.65128 15.8894 1.94544C16.5589 2.10651 17 2.71453 17 3.40321V14.05C17 14.7127 16.4627 15.25 15.8 15.25H14.9834L15.9141 17.3439C16.1384 17.8486 15.9111 18.4396 15.4064 18.6639C14.9017 18.8882 14.3107 18.6609 14.0864 18.1562L12.7948 15.25H7.2057L5.91406 18.1562C5.68976 18.6609 5.0988 18.8882 4.59411 18.6639C4.08943 18.4396 3.86213 17.8486 4.08644 17.3439L5.01707 15.25H4.2C3.53726 15.25 3 14.7127 3 14.05V3.40321ZM14.5999 9.25H10.7499V3.25924C12.5495 3.30418 13.7776 3.50346 14.4342 3.64289C14.7745 3.71516 14.9999 4.0194 14.9999 4.3673V8.85C14.9999 9.07091 14.8208 9.25 14.5999 9.25ZM5.56565 3.64289C6.22223 3.50346 7.45032 3.30418 9.2499 3.25924V9.25H5.3999C5.17899 9.25 4.9999 9.07091 4.9999 8.85V4.3673C4.9999 4.0194 5.22534 3.71516 5.56565 3.64289ZM5.4999 13.25C6.05219 13.25 6.4999 12.8023 6.4999 12.25C6.4999 11.6977 6.05219 11.25 5.4999 11.25C4.94762 11.25 4.4999 11.6977 4.4999 12.25C4.4999 12.8023 4.94762 13.25 5.4999 13.25ZM15.4999 12.25C15.4999 12.8023 15.0522 13.25 14.4999 13.25C13.9476 13.25 13.4999 12.8023 13.4999 12.25C13.4999 11.6977 13.9476 11.25 14.4999 11.25C15.0522 11.25 15.4999 11.6977 15.4999 12.25Z"/></svg>

<svg xmlns="http://www.w3.org/2000/svg" viewBox="0 0 20 20"><path fill-rule="evenodd" d="M3 3.403c0-.688.441-1.296 1.11-1.458A25.7 25.7 0 0 1 10 1.25c2.534 0 4.666.401 5.89.695.669.162 1.11.77 1.11 1.458V14.05a1.2 1.2 0 0 1-1.2 1.2h-.817l.931 2.094a1 1 0 0 1-1.828.812l-1.291-2.906h-5.59l-1.29 2.906a1 1 0 1 1-1.829-.812l.931-2.094H4.2a1.2 1.2 0 0 1-1.2-1.2zM14.6 9.25h-3.85V3.26c1.8.044 3.028.243 3.684.383.34.072.566.376.566.724V8.85a.4.4 0 0 1-.4.4M5.566 3.643c.656-.14 1.884-.339 3.684-.384V9.25H5.4a.4.4 0 0 1-.4-.4V4.367c0-.348.225-.652.566-.724M5.5 13.25a1 1 0 1 0 0-2 1 1 0 0 0 0 2m10-1a1 1 0 1 1-2 0 1 1 0 0 1 2 0"/></svg>
